store-check-outline.svg

<svg fill="currentColor" viewBox="0 0 24 24"><path d="M19 13c.7 0 1.37.13 2 .35V12l-1-5H4l-1 5v2h1v6h9.09c-.05-.33-.09-.66-.09-1 0-1.23.37-2.36 1-3.31V14h1.69c.95-.63 2.08-1 3.31-1m-7 5H6v-4h6zm-6.96-6 .6-3h12.72l.6 3zM20 6H4V4h16zm2.5 11.25L17.75 22 15 19l1.16-1.16 1.59 1.59 3.59-3.59z"/></svg>

<svg  viewBox="0 0 24 24" fill="currentColor"><path  d="M19 13C19.7 13 20.37 13.13 21 13.35V12L20 7H4L3 12V14H4V20H13.09C13.04 19.67 13 19.34 13 19C13 17.77 13.37 16.64 14 15.69V14H15.69C16.64 13.37 17.77 13 19 13M12 18H6V14H12V18M5.04 12L5.64 9H18.36L18.96 12H5.04M20 6H4V4H20V6M22.5 17.25L17.75 22L15 19L16.16 17.84L17.75 19.43L21.34 15.84L22.5 17.25"/></svg>
